src/assets/duotone/DirectSend.svg

<svg width="24" height="24" viewBox="0 0 24 24"  xmlns="http://www.w3.org/2000/svg">
<path d="M14.5302 3.47023L12.5302 1.47023C12.5202 1.46023 12.5102 1.46023 12.5102 1.45023C12.4502 1.39023 12.3702 1.34023 12.2902 1.30023C12.2802 1.30023 12.2802 1.30023 12.2702 1.29023C12.1902 1.26023 12.1102 1.25023 12.0302 1.24023C12.0002 1.24023 11.9802 1.24023 11.9502 1.24023C11.8902 1.24023 11.8302 1.26023 11.7702 1.28023C11.7402 1.29023 11.7202 1.30023 11.7002 1.31023C11.6202 1.35023 11.5402 1.39023 11.4802 1.46023L9.4802 3.46023C9.1902 3.75023 9.1902 4.23023 9.4802 4.52023C9.7702 4.81023 10.2502 4.81023 10.5402 4.52023L11.2602 3.80023V9.00023C11.2602 9.41023 11.6002 9.75023 12.0102 9.75023C12.4202 9.75023 12.7502 9.41023 12.7502 9.00023V3.81023L13.4702 4.53023C13.6202 4.68023 13.8102 4.75023 14.0002 4.75023C14.1902 4.75023 14.3802 4.68023 14.5302 4.53023C14.8202 4.24023 14.8202 3.76023 14.5302 3.47023Z" />
<path opacity="0.4" d="M16.19 6H7.81C4.17 6 2 8.17 2 11.81V16.18C2 19.83 4.17 22 7.81 22H16.18C19.82 22 21.99 19.83 21.99 16.19V11.82C22 8.17 19.83 6 16.19 6Z" />
<path d="M21.3 12.23H17.82C16.84 12.23 15.97 12.77 15.53 13.65L14.69 15.31C14.49 15.71 14.09 15.96 13.65 15.96H10.37C10.06 15.96 9.62 15.89 9.33 15.31L8.49 13.66C8.05 12.79 7.17 12.24 6.2 12.24H2.7C2.31 12.24 2 12.55 2 12.94V16.2C2 19.83 4.18 22 7.82 22H16.2C19.63 22 21.74 20.12 22 16.78V12.93C22 12.55 21.69 12.23 21.3 12.23Z" />
</svg>

<?xml version="1.0" encoding="UTF-8"?>
<svg width="24" height="24" viewBox="0 0 24 24" xmlns="http://www.w3.org/2000/svg">
 <path d="m14.53 3.4702-2-2c-0.01-0.01-0.02-0.01-0.02-0.02-0.06-0.06-0.14-0.11-0.22-0.15-0.01 0-0.01 0-0.02-0.01-0.08-0.03-0.16-0.04-0.24-0.05h-0.08c-0.06 0-0.12 0.02-0.18 0.04-0.03 0.01-0.05 0.02-0.07 0.03-0.08 0.04-0.16 0.08-0.22 0.15l-2 2c-0.29 0.29-0.29 0.77 0 1.06s0.77 0.29 1.06 0l0.72-0.72v5.2c0 0.41 0.34 0.75 0.75 0.75s0.74-0.34 0.74-0.75v-5.19l0.72 0.72c0.15 0.15 0.34 0.22 0.53 0.22s0.38-0.07 0.53-0.22c0.29-0.29 0.29-0.77 0-1.06z"/>
 <path d="M16.19 6H7.81C4.17 6 2 8.17 2 11.81V16.18C2 19.83 4.17 22 7.81 22H16.18C19.82 22 21.99 19.83 21.99 16.19V11.82C22 8.17 19.83 6 16.19 6Z" opacity=".4"/>
 <path d="m21.3 12.23h-3.48c-0.98 0-1.85 0.54-2.29 1.42l-0.84 1.66c-0.2 0.4-0.6 0.65-1.04 0.65h-3.28c-0.31 0-0.75-0.07-1.04-0.65l-0.84-1.65c-0.44-0.87-1.32-1.42-2.29-1.42h-3.5c-0.39 0-0.7 0.31-0.7 0.7v3.26c0 3.63 2.18 5.8 5.82 5.8h8.38c3.43 0 5.54-1.88 5.8-5.22v-3.85c0-0.38-0.31-0.7-0.7-0.7z"/>
</svg>
